**kern	**kern
*part1	*part1
*staff2	*staff1
*I"Piano	*
*clefF4	*clefG2
*k[f#]	*k[f#]
=1	=1
.	8qdd#Xi/
4BB 4B	8.aa^^L
.	16gg^^Jk
*clefG2	*
8f#L 8a	4ff#^^
8BJ	.
4f# 4a	4b^^
*clefF4	*
=	=
4E 4e	8g#X^^L
.	8b^^J
*clefG2	*
8eL 8g#X	4ee^^
8BJ	.
4e 4g#	4b^^
*clefF4	*
=	=
4E 4e	2ee^^
*clefG2	*
8eL 8g#X	.
8BJ	.
4e 4g#	4gg#X^^
*clefF4	*
=	=
.	32qqb/LLL
.	32qqee/
.	32qqgg#X/JJJ
4E 4e	8.bb^^L
.	16gg#X^^Jk
*clefG2	*
8eL 8g#X	8ee^^L
8BJ	8b^^
4e 4g#	8ee^^
.	8gg#^^J
*clefF4	*
=	=
.	32qqb/LLL
.	32qqee/
.	32qqggn/JJJ
4E 4e	8.bb^^L
.	16ggn^^Jk
*clefG2	*
8eL 8gn	8ee^^L
8BJ	8b^^
4e 4g	8ee^^
.	8gg^^J
=	=
.	32qqb/LLL
.	32qqee/
.	32qqgg/JJJ
4E 4e	8.bb^^L
.	16gg^^Jk
8eL 8g	8ee^^L
8BJ	8b^^
4e 4g	8ee^^^
.	8gg^^^J
*clefF4	*
=	=
2E; 2B 2e	2g^^;: 2b: 2gg:
==	==
*-	*-
!!!system-decoration: {(s1,s2)}
!!!RDF**kern: i = editorial accidental
